Pods/ProtonCore-UIFoundations/libraries/UIFoundations/Sources/Assets.xcassets/Images/IconSet/ic-shield-half-filled.imageset/ic-shield-half-filled.svg

<svg width="24" height="24" viewBox="0 0 24 24" fill="none" xmlns="http://www.w3.org/2000/svg">
<path fill-rule="evenodd" clip-rule="evenodd" d="M5.4855 13.6894C4.48981 11.0743 4.36402 8.26031 4.60542 5.58506L12.0005 3.04333L19.3946 5.585C19.6358 8.26031 19.5101 11.0743 18.5145 13.6895C17.5089 16.3309 15.5778 18.8728 12.0005 20.8913C8.42266 18.8728 6.49123 16.3309 5.4855 13.6894ZM11.7581 1.5405L3.65982 4.32393C3.38761 4.41749 3.19182 4.65891 3.1611 4.94678C2.53408 10.8227 3.4165 17.9853 11.6565 22.4142C11.8693 22.5286 12.1317 22.5286 12.3445 22.4142C20.5835 17.9853 21.4656 10.8227 20.839 4.94681C20.8083 4.65892 20.6125 4.41748 20.3403 4.32391L12.2429 1.54051C12.0857 1.4865 11.9153 1.4865 11.7581 1.5405ZM11.8388 4.49963C11.8911 4.48039 11.9455 4.47075 12 4.4707V19.4996C11.9209 19.4996 11.8418 19.4792 11.771 19.4384C6.27768 16.2748 5.58202 11.1587 6.00003 6.96163C6.02051 6.75601 6.15104 6.58357 6.33251 6.51674L11.8388 4.49963Z" fill="#0C0C14"/>
</svg>

<svg xmlns="http://www.w3.org/2000/svg" width="24" height="24" viewBox="0 0 24 24">
  <g class="ic-shield-half-filled">
    <path fill-rule="evenodd" d="M5.486 13.69c-.996-2.616-1.122-5.43-.88-8.105L12 3.043l7.394 2.542c.24 2.675.115 5.49-.88 8.105-1.006 2.64-2.937 5.183-6.514 7.201-3.578-2.018-5.51-4.56-6.515-7.202Zm6.272-12.15L3.66 4.324a.743.743 0 0 0-.499.623c-.627 5.876.256 13.038 8.495 17.467a.733.733 0 0 0 .688 0c8.24-4.429 9.122-11.591 8.495-17.467a.743.743 0 0 0-.499-.623L12.243 1.54a.746.746 0 0 0-.485 0Zm.08 2.96A.467.467 0 0 1 12 4.47V19.5a.458.458 0 0 1-.229-.062C6.278 16.275 5.582 11.158 6 6.962a.525.525 0 0 1 .333-.445L11.839 4.5Z" class="Icon"/>
  </g>
</svg>
